source/images/icons/facebook.svg

<?xml version="1.0" encoding="UTF-8" standalone="no"?>
<svg width="30px" height="30px" viewBox="0 0 30 30" version="1.1" xmlns="http://www.w3.org/2000/svg" xmlns:xlink="http://www.w3.org/1999/xlink">
    <!-- Generator: Sketch 39.1 (31720) - http://www.bohemiancoding.com/sketch -->
    <title>facebook</title>
    <desc>Created with Sketch.</desc>
    <defs></defs>
    <g id="Speakers" stroke="none" stroke-width="1" fill="none" fill-rule="evenodd">
        <path d="M15,0 C6.71625,0 0,6.71625 0,15 C0,23.28375 6.71625,30 15,30 C23.28375,30 30,23.28375 30,15 C30,6.71625 23.28375,0 15,0 L15,0 Z M18.75,10 L17.0625,10 C16.39,10 16.25,10.27625 16.25,10.9725 L16.25,12.5 L18.75,12.5 L18.48875,15 L16.25,15 L16.25,23.75 L12.5,23.75 L12.5,15 L10,15 L10,12.5 L12.5,12.5 L12.5,9.615 C12.5,7.40375 13.66375,6.25 16.28625,6.25 L18.75,6.25 L18.75,10 L18.75,10 Z" id="facebook" fill="#0D41C2"></path>
    </g>
</svg>

<svg width="30" height="30" viewBox="0 0 30 30" xmlns="http://www.w3.org/2000/svg"><title>facebook</title><path d="M15 0C6.716 0 0 6.716 0 15c0 8.284 6.716 15 15 15 8.284 0 15-6.716 15-15 0-8.284-6.716-15-15-15zm3.75 10h-1.688c-.672 0-.812.276-.812.973V12.5h2.5l-.261 2.5H16.25v8.75H12.5V15H10v-2.5h2.5V9.615c0-2.211 1.164-3.365 3.786-3.365h2.464V10z" fill="#0D41C2" fill-rule="evenodd"/></svg>
